img/footer-image-item-01.svg

<svg width="206" height="162" viewBox="0 0 206 162" fill="none" xmlns="http://www.w3.org/2000/svg">
<g clip-path="url(#clip0)">
<path d="M125.818 23.6476C119.993 22.9977 114.066 22.3882 108.668 23.9073C101.596 25.9176 96.0929 31.4894 90.7641 36.908L70.5165 57.6166C64.1169 64.1654 57.2862 70.9394 48.4034 72.0793C41.4867 72.9576 34.0876 70.2926 26.8941 69.3911C18.427 68.3395 10.2379 69.7401 3.00874 73.4763C15.5955 87.2525 24.2719 105.349 27.3528 124.251C27.483 125.067 27.6434 125.941 28.1245 126.599C29.2365 128.062 31.0142 127.258 32.101 126.235C40.2681 118.532 44.7603 104.683 55.4571 102.267C61.223 100.967 67.6279 103.394 73.6814 106.085C83.758 110.589 93.7727 115.971 104.037 118.536C111.369 120.369 118.67 120.72 125.927 121.063C131.732 121.336 137.639 121.598 142.886 119.641C148.509 117.539 153.01 113.021 157.286 108.464C167.246 97.8392 176.975 85.9639 180.631 69.8916C182.771 60.4343 182.685 50.0293 182.589 39.7615C182.467 26.5245 167.688 28.34 160.397 27.5267L125.818 23.6476Z" fill="#255776"/>
</g>
<defs>
<clipPath id="clip0">
<rect width="180.763" height="102.179" fill="white" transform="matrix(-0.929568 0.36865 0.36865 0.929568 168.031 0)"/>
</clipPath>
</defs>
</svg>

<svg width="206" height="162" fill="none" xmlns="http://www.w3.org/2000/svg"><g clip-path="url(#clip0)"><path d="M125.818 23.648c-5.825-.65-11.752-1.26-17.15.26-7.072 2.01-12.575 7.581-17.904 13L70.516 57.617c-6.4 6.548-13.23 13.322-22.113 14.462-6.916.879-14.315-1.786-21.509-2.688-8.467-1.052-16.656.35-23.885 4.085 12.586 13.776 21.263 31.873 24.344 50.775.13.816.29 1.69.771 2.348 1.113 1.463 2.89.659 3.977-.364 8.167-7.703 12.66-21.552 23.356-23.968 5.766-1.3 12.17 1.127 18.224 3.818 10.077 4.504 20.092 9.886 30.356 12.451 7.332 1.833 14.633 2.184 21.89 2.527 5.805.273 11.712.535 16.959-1.422 5.623-2.102 10.124-6.62 14.4-11.177 9.96-10.625 19.689-22.5 23.345-38.572 2.14-9.458 2.054-19.863 1.958-30.13-.122-13.238-14.901-11.422-22.192-12.235l-34.579-3.88z" fill="#255776"/></g><defs><clipPath id="clip0"><path fill="#fff" transform="scale(-1 1) rotate(21.632 -84.016 -439.75)" d="M0 0h180.763v102.179H0z"/></clipPath></defs></svg>
